X:198
T: LORENZ LORENZ LORENZ
N: F0343
O: Europa, Mitteleuropa, Deutschland
R: Jugend - Lied, Geselligkeit, Scherz, Kanon
M: 4/4
L: 1/8
K: D
 | D4G4 | A4D2z2 |
A4B4 | c4d2z2 |
f2ffg2g2 | eeeef2z2 |
d2dde2e2 | AAAAd2z2

@@@ Tune index: 5629
